X: 3
T:Pat Horgan's #2
M:2/4
L:1/16
S:Pog Band Circassian Circle Set
K:D
|:"Em"B3B B2A2 |"D" F2A2 D2A2 |"Em" B3B B2A2 | B2d2 e2d2 | 
B4 B2A2 |"D" F2A2 D3E| F2D2 A2F2 |"A" E4 E4 :| 
|:"Em"B2e2 e3f| e2d2 B2A2 | B2e2 e3f | e2d2 B2c2 |"D"
d3e d2B2 | A2F2 D3E | F2D2 A2F2 |"A" E4 E4:||
